X:3603
T:Carolan's Fourth Untitled
C:Turlough O'Carolan (1670-1738)
O:Ireland
Z:Paul Hardy's Annex Tunebook 2015 (see www.paulhardy.net). Creative Commons cc by-nc-sa licenced.
M:6/8
L:1/8
Q:3/8=70
K:C
G|"C"ECC "Em"EFG|"Am"cA/2B/2c/2A/2 "G"GAF|"C"ECE "G"GEG|"F"AFA "G"BGB|
"C"cBc "Dm"def|"C"eag "Dm"fed|"C"edc "G"GcB|"C"c3 c2:|
|:e/2f/2|"C"gec gec|"F"f/2e/2f/2g/2a "C"gec|"G"dBG dBG|"C"c/2B/2c/2d/2e "G"dBG|"C"cBc "G"GAF|
"C"ECE "G"GEG|"F"AFA "G"BGB|"C"cBc "Dm"def|"C"edc "G"GcB|"C"c3 c2:|

